X: 19231
T: It Was A Magic Mist That Put Me Astray One Night
R: waltz
M: 3/4
K: Eminor
(E/F/G/A/)|B2 (Be) (dB)|AG F2 (EC)|E2 D2 (E/F/G/A/)|A2 A2 cB|AG E2 DF|E4
(E/F/G/A/)|B2 (Be) (dB)|AG F2 (ED)|D2 D2 (E/F/G/A/)|A2 A2 (3cBA )|AG E2 D2|E4||
Bd|e2 e2 (3fec )|dB A2 (AG)|F2 E2 Bd|e2 e2 fe|dB A2 Be|d4
FA|B2 (Be) (dB)|dB A2 (FE)|E2 D2 (E/F/G/A/)|A2 A2 (dc)|BA F2 D2|E4:|

